X:1
T:I Kyrkan
T:I Kyrkan
T:Ett Bondbröllop (nr 2)
T:August Söderman
T:Richard Gustafsson
C:August Søderman
Z:Richard Gustafsson
%%score [ 1 2 3 4 ]
L:1/8
Q:1/4=80
M:2/4
K:Bb
V:1 treble-8 nm="T1"
V:2 treble-8 nm="T2"
V:3 bass nm="B1"
V:4 bass nm="B2"
V:1
!mf! B3/2 A/ G A | (B/c/) (d/c/) B G | B3/2 A/ G A | B c A2 | B3/2 A/ G A | (B/c/) (d/c/) B A | %6
w: Kyr- kan är med|blom- * mor _ si- rad,|ro- sen- kran- sar|ut- i rad.|Kring var pe- la-|re _ är _ vi- rad|
 G3/2 A/ B c | A F F2 |!>(! A3/2 B/!>)! c d |!>(! c3/2 B/!>)! A G | A3/2 B/ c d | c f c2 | z4 | %13
w: en guir- land af|grö- na blad.|Bru- de- stas- sen|up- på gån- gen|tå- gar fram vid|or- gelns ton,||
"^cresc." B/ d/ f/ b/ f B |!ff! e/ d/ c/ B/ c c | F2- F z ||[M:4/4]!ppp!"^sost." F4 F4 | G4 G4 | %18
w: Klock- arn le- der sån- gen|ut- i e- gen hög per-|son. _|På den|väg de|
 F4 F4 | F4 F4 | F4!<(! F4!<)! | B4!>(! B4!>)! | A4 G4 | !fermata!A8 |!ppp! G4 G4 | F4 F4 | B4 B4 | %27
w: bå- da|van- dra,|led dem,|Her- re,|med ditt|råd:|Låt dem,|stöd- jan-|de var-|
 A4 A4 |!<(! c4 c4!<)! |!>(! B4 c4 | B4!>)! A4 | !fermata!B4- B2 z2 ||[K:Eb][M:2/4] z4 | %33
w: and- ra,|un- der-|stöd- jas|af din|nåd! _||
 z2 z!mf! B | e2 e e | (ed/c/ d) d |!<(! (e>d) e!<)! f |!>(! (ed) c!>)! B | (=AB) c d | %39
w: Vid|al- tar- ets|rund, _ _ _ där|präs- * ten re'n|vän- * tar med|bo- * ken i|
 (cB/=A/) B z | z4 | z4 | z2 z c | f f/ f/ f B |!<(! e2 e e!<)! |!f! a2 e e | (g2- gf) | %47
w: han- * * den.|||Det|äk- ta för- bund, och|kny- ta de|he- li- ga|ban- * *|
 e2 z!p! G |!<(! c2!<)! c c | B2 B G |!<(! c2!<)! c c | B3 G | c2!<(! d d | e2 d c!<)! | %54
w: den. Hör|gum- mor- na|snyf- ta och|gub- bar- na|stå med|tå- ra- de|ö- gon och|
!>(! B2 d c!>)! | B2 =A!pp! =F |!<(! B2!<)! B B | =A2 A F |!<(! B2!<)! B B | =A2 z F | %60
w: fröj- da- de|sjä- lar och|tär- nor- na|tän- ka visst|al- la som|så: Här-|
!<(! F2"^poco rall." F F | B2 B B!<)! |!f!!>(! e2 B B!>)! |!p! d2 c z || %64
w: näst är för|mej som man|brud- marsch- en|spe- lar!|
[K:Bb]!mf!"^a tempo" B3/2 A/ G A | (B/c/) (B/A/) B G | B3/2 A/ G A | B c A2 | B3/2 A/ G A | %69
w: Kyr- kan är med|blom- * mor _ si- rad,|ro- sen- kran- sar|ut- i rad.|Kring var pe- la-|
 (B/c/) (d/c/) B A | G3/2 A/ B c | A F F2 |!>(! A3/2 B/ c!>)! d |!>(! c3/2 B/!>)! A G | %74
w: re _ är _ vi- rad|en guir- land af|grö- na blad.|Bru- de- stas- sen|up- på gån- gen|
 A3/2 B/ c d | c f c2 | z4 |"^cresc." B/ d/ f/ b/ f B |!ff! e/ d/ c/ B/ c c | d2- d z || %80
w: tå- gar ut vid|or- gelns ton,||Klock- arn le- der sån- gen|ut- i e- gen hög per-|son. _|
[M:4/4]!ppp!"^sost." G4 G4 | F4 F4 |!<(! B4 B4!<)! | _A4 A4 | c4 c4 |!>(! B4 c4 | %86
w: På den|väg de|bå- da|van- dra,|led dem,|Her- re,|
"^rall." B4 A4!>)! | !fermata!B8 |] %88
w: med ditt|råd!|
V:2
!mf! F3/2 F/ F F | F F F G | F3/2 F/ F F | F G A2 | F3/2 F/ F F | F F F F | F3/2 F/ G G | F F F2 | %8
w: Kyr- kan är med|blom- mor si rad,|ro- sen- kran- sar|ut- i rad.|Kring var pe- la-|re är vi- rad|en guir- land af|grö- na blad.|
!>(! F3/2 G/!>)! A B |!>(! A3/2 G/!>)! F E | F3/2 G/ A B | A A A2 |!>(! B3/2 c/!>)!"^cresc." d e | %13
w: Bru- de- stas- sen|up- på gån- gen|tå- gar fram vid|or- gelns ton,|Kloc- kar- far han|
 d3/2 c/ B B |!ff! e/ d/ c/ B/ c c | F2- F z ||[M:4/4]!ppp!"^sost." D4 D4 | E4 E4 | E4 E4 | D4 D4 | %20
w: le- der sån- gen|ut- i e- gen hög per-|son. _|På den|väg de|bå- da|van- dra,|
 F4!<(! F4!<)! | F4!>(! F4!>)! | F4 =E4 | !fermata!F8 |!ppp! D4 D4 | F4 F4 | F4 F4 | A4 A4 | %28
w: led dem,|Her- re,|med ditt|råd:|Låt dem,|stöd- jan-|de var-|and- ra,|
!<(! A4 A4!<)! |!>(! G4 G4 | F4!>)! E4 | !fermata!D4- D2 z2 ||[K:Eb][M:2/4] z2 z!mf! F | B2 B B | %34
w: un- der-|stöd- jas|af din|nåd! _|Nu|brud- pa- ret|
 (B=A/G/) A A | B B/ B/ B B |!<(! B2 B!<)! B |!>(! B2 F!>)! F | F2 F F | F2 F z | z4 | z2 z F | %42
w: stan- * * nar vid|al- ta- rets rund, där|präs- ten re'n|vän- tar med|bo- ken i|han- den.||Det|
 B2 B B | (B=A/G/ A) _A |!<(! G2 G c!<)! |!f! (_c4 | B) B/ B/ A2 | G2 z!p! G |!<(! G2!<)! G G | %49
w: äk- ta för-|bund, _ _ _ och|kny- ta de|he-|* li- ga ban-|den. Hör|gum- mor- na|
 B2 B G |!<(! G2!<)! G G | B3 G | G2!<(! G G | G2 G G!<)! |!>(! G2 G G!>)! | G2 ^F!pp! =F | %56
w: snyf- ta och|gub- bar- na|stå med|tå- ra- de|ö- gon och|fröj- da- de|sjä- lar och|
!<(! F2!<)! F F | =A2 A F |!<(! F2!<)! F F | =A2 z F |!<(! F2"^poco rall." F F | F2 B B!<)! | %62
w: tär- nor- na|tän- ka visst|al- la som|så: Här-|näst är för|mej som man|
!f!!>(! B2 B B!>)! |!p! =A2 A z ||[K:Bb]!mf!"^a tempo" F3/2 F/ F F | F F F G | F3/2 F/ F F | %67
w: brud- marsch- en|spe- lar!|Kyr- kan är med|blom- mor si- rad,|ro- sen- kran- sar|
 F G A2 | F3/2 F/ F F | F F F F | F3/2 F/ G G | F F F2 |!>(! F3/2 G/!>)! A B | %73
w: ut- i rad.|Kring var pe- la-|re är vi- rad|en guir- land af|grö- na blad.|Bru- de- stas- sen|
!>(! A3/2 G/!>)! F E | F3/2 G/ A B | A A A2 |!>(! B3/2 c/!>)!"^cresc." d e | d3/2 c/ B B | %78
w: up- på gån- gen|tå- gar fram vid|or- gelns ton,|Kloc- kar- far han|le- der sån- gen|
!ff! e/ d/ c/ B/ c c | d2- d z ||[M:4/4]!ppp!"^sost." D4 D4 | F4 F4 |!<(! _G4 G4!<)! | _A4 A4 | %84
w: ut- i e- gen hög per-|son. _|På den|väg de|bå- da|van- dra,|
 =A4 A4 |!>(! G4 G4 |"^rall." F4 E4!>)! | !fermata!D8 |] %88
w: led dem,|Her- re,|med ditt|råd!|
V:3
!mf! D,3/2 F,/ E, C, | (D,/E,/) (F,/E,/) D, E, | D,3/2 F,/ E, C, | D, E, F,2 | D,3/2 F,/ E, C, | %5
w: Kyr- kan är med|blom- * mor _ si- rad,|ro- sen- kran- sar|ut- i rad.|Kring var pe- la-|
 (D,/E,/) (F,/E,/) D, F, | F,3/2 F,/ =E, E, | F, F, F,2 |!>(! E,3/2 E,/!>)! E, E, | %9
w: re _ är _ vi- rad|en guir- land af|grö- na blad.|Bru- de- stas- sen|
!>(! E,3/2 E,/!>)! E, E, | E,3/2 E,/ E, E, | E, E, E,2 |!>(! _A,3/2 A,/!>)!"^cresc." A, A, | %13
w: up- på gån- gen|tå- gar fram vid|or- gelns ton,|Kloc- kar- far han|
 _A,3/2 A,/ A, B, |!ff! E,/ D,/ C,/ B,,/ C, C, | F,2- F, z ||[M:4/4]!ppp!"^sost." D,4 D,4 | %17
w: le- der sån- gen|ut- i e- gen hög per-|son. _|På den|
 C,4 C,4 | C,4 C,4 | D,4 D,4 | D,4!<(! D,4!<)! | D,4!>(! _D,4!>)! | C,4 C,4 | !fermata!C,8 | %24
w: väg de|bå- da|van- dra,|led dem,|Her- re,|med ditt|råd:|
!ppp! B,,4 B,,4 | D,4 D,4 | D,4 D,4 | F,4 F,4 |!<(! E,4 E,4!<)! |!>(! D,4 E,4 | D,4!>)! C,4 | %31
w: Låt dem,|stöd- jan-|de var-|and- ra,|un- der-|stöd- jas|af din|
 !fermata!B,,4- B,,2 z!mf! B,, ||[K:Eb][M:2/4] E,2 E, E, | (E,D,/C,/) D, D, | C,2 F, F, | %35
w: nåd! _ Nu|brud- pa- ret|stan- * * nar vid|al- ta- rets|
 F,2- F, A, |!<(! (G,>F,) G,!<)! A, |!>(! (G,F,) E,!>)! D, | (C,D,) E, F, | (E,D,/C,/) D, z | %40
w: rund, _ där|präs- * ten re'n|vän- * tar med|bo- * ken i|han- * * den.|
 z2 z C, | F,2 F, F, | (F,=E,/D,/) E, E, | F, F,/ F,/ F, F, |!<(! E,2 E, E,!<)! | %45
w: Väl-|sig- na han|vill _ _ det- ta|bund,äk- ta för- bund, och|kny- ta för|
!f! E, E,/ E,/ E, E,/ E,/ | (E,D,/C,/ D,2) | E,2 z!p! G, |!<(! E,2!<)! E, E, | D,2 D, G, | %50
w: e- vigt de he- li- ga|ban- * * *|den. Hör|gum- mor- na|snyf- ta och|
!<(! E,2!<)! E, E, | D,3 G, | E,2!<(! D, D, | C,2 D, E,!<)! |!>(! D,2 D, E,!>)! | D,2 D,!pp! =F, | %56
w: gub- bar- na|stå med|tå- ra- de|ö- gon och|fröj- da- de|sjä- lar och|
!<(! _D,2!<)! D, D, | C,2 C, F, |!<(! _D,2!<)! D, D, | C,2 z F, |!<(! F,2"^poco rall." F, F, | %61
w: tär- nor- na|tän- ka visst|al- la som|så: Här-|näst är för|
 F,2 F, F,!<)! |!f!!>(! _G,2 G, G,!>)! |!p! F,2 E, z ||[K:Bb]!mf!"^a tempo" D,3/2 F,/ E, C, | %65
w: mej som man|brud- marsch- en|spe- lar!|Kyr- kan är med|
 (D,/E,/) (F,/E,/) D, E, | D,3/2 F,/ E, C, | D, E, F,2 | D,3/2 F,/ E, C, | %69
w: blom- * mor _ si- rad,|ro- sen- kran- sar|ut- i rad.|Kring var pe- la-|
 (D,/E,/) (F,/E,/) D, F, | F,3/2 F,/ =E, E, | F, F, F,2 |!>(! _E,3/2 E,/!>)! E, E, | %73
w: re _ är _ vi- rad|en guir- land af|grö- na blad.|Bru- de- stas- sen|
!>(! E,3/2 E,/!>)! E, E, | E,3/2 E,/ E, E, | E, E, E,2 |!>(! _A,3/2 A,/!>)!"^cresc." A, A, | %77
w: up- på gån- gen|tå- gar fram vid|or- gelns ton,|Kloc- kar- far han|
 _A,3/2 A,/ A, B, |!ff! E,/ D,/ C,/ B,,/ C, C, | F,2- F, z ||[M:4/4]!ppp!"^sost." B,,4 B,,4 | %81
w: le- der sån- gen|ut- i e- gen hög per-|son. _|På den|
 D,4 D,4 |!<(! _D,4 D,4!<)! | F,4 F,4 | _E,4 E,4 |!>(! D,4 E,4 |"^rall." D,4 C,4!>)! | %87
w: väg de|bå- da|van- dra,|led dem,|Her- re,|med ditt|
 !fermata!B,,8 |] %88
w: råd!|
V:4
!mf! B,,3/2 B,,/ B,, B,, | B,, B,, B,, B,, | B,,3/2 B,,/ B,, B,, | B,, E, F,2 | %4
w: Kyr- kan är med|blom- mor si- rad,|ro- sen- kran- sar|ut- i rad.|
 B,,3/2 B,,/ B,, B,, | B,, B,, B,, C, | C,3/2 C,/ C, C, | F, F, F,2 | z4 | %9
w: Kring var pe- la-|re är vi- rad|en guir- land af|grö- na blad.||
"^marc."!mf! F,,/ A,,/ C,/ F,/ C, F,, | z4 | z4 |!>(! D,3/2 E,/!>)!"^cresc." F, G, | %13
w: Tå- gar fram på gån- gen,|||Kloc- kar- far han|
 F,3/2 E,/ D, B, |!ff! E,/ D,/ C,/ B,,/ C, C, | F,2- F, z ||[M:4/4]!ppp!"^sost." B,,4 B,,4 | %17
w: le- der sån- gen|ut- i e- gen hög per-|son. _|På den|
 B,,4 B,,4 | A,,4 A,,4 | B,,4 B,,4 | B,,4!<(! A,,4!<)! | G,,4!>(! G,,4!>)! | C,4 C,4 | %23
w: väg de|bå- da|van- dra,|led dem,|Her- re,|med ditt|
 !fermata!F,,8 |!ppp! G,,4 G,,4 | D,4 D,4 | B,,4 B,,4 | F,4 F,4 |!<(! F,,4 ^F,,4!<)! | %29
w: råd:|Låt dem,|stöd- jan-|de var-|and- ra,|un- der-|
!>(! G,,4 E,,4 | F,,4!>)! F,,4 | !fermata!B,,4- B,,2 z2 ||[K:Eb][M:2/4] z4 | z4 | z2 z!mf! F,, | %35
w: stöd- jas|af din|nåd! _|||Vid|
 B,, B,,/ B,,/ B,, z | z4 | z2 z F, | F, F,/ F,/ F, F,/ F,/ | F, F,/ F,/ F, F,, | B,,2 B,, B,, | %41
w: al- ta- rets rund||där|präs- ten re'n vän- tar med|bo- ken i hand. Väl-|sig- na han|
 (B,,=A,,/G,,/) A,, A,, | G,,2 C, C, | F,,2- F,, D, |!<(! C,2 C, G,,!<)! |!f! F,,2 F,, F,, | B,,4 | %47
w: vill _ _ det- ta|äk- ta för-|bund, _ och|kny- ta de|he- li- ga|ban-|
 E,2 z2 | z2 z!<(! G,,!<)! | =A, G,/ ^F,/ G, G,, | z2 z!p!!<(! G,,!<)! | =A, G,/ ^F,/ G,!p! G, | %52
w: den.|Hör|gum- mor- na snyf- ta|och|gub- bar- na stå med|
 C,2!<(! B,, B,, | =A,,2 B,, C,!<)! |!>(! D,2 B,, C,!>)! | D,2 D, z | z2 z!<(! F,,!<)! | %57
w: tå- ra- de|ö- gon och|fröj- da- de|sjä- lar|Och|
 G, F,/ =E,/ F, F,, | z2 z!<(! F,,!<)! | G, F,/ =E,/ F, F, |!<(! F,2"^poco rall." F, F, | %61
w: tär- nor- na tän- ka|visst|al- la som så: Här|näst är för|
 D,2 D, _D,!<)! |!f!!>(! C,2 C, C,!>)! |!p! F,,2 F,, z ||[K:Bb]!mf!"^a tempo" B,,3/2 B,,/ B,, B,, | %65
w: mej som man|brud- marsch- en|spe- lar!|Kyr- kan är med|
 B,, B,, B,, B,, | B,,3/2 B,,/ B,, B,, | B,, E, F,2 | B,,3/2 B,,/ B,, B,, | B,, B,, B,, C, | %70
w: blom- mor si- rad,|ro- sen- kran- sar|ut- i rad.|Kring var pe- la-|re är vi- rad|
 C,3/2 C,/ C, C, | F, F, F,2 | z4 |"^marc."!mf! F,,/ A,,/ C,/ F,/ C, F,, | z4 | z4 | %76
w: en guir- land af|grö- na blad.||Tå- gar fram på gån- gen,|||
!>(! D,3/2 E,/!>)!"^cresc." F, G, | F,3/2 E,/ D, B, |!ff! E,/ D,/ C,/ B,,/ C, C, | F,2- F, z || %80
w: Kloc- kar- far han|le- der sån- gen|ut- i e- gen hög per-|son. _|
[M:4/4]!ppp!"^sost." G,,4 G,,4 | B,,4 B,,4 |!<(! _G,,4 G,,4!<)! | _D,4 D,4 | F,,4 ^F,,4 | %85
w: På den|väg de|bå- da|van- dra,|led dem,|
!>(! G,,4 E,,4 |"^rall." F,,4 F,,4!>)! | !fermata!B,,8 |] %88
w: Her- re,|med ditt|råd!|

